X: 16
T: Rolling In The Barrel
Z: Philou
S: https://thesession.org/tunes/500#setting47130
R: reel
M: 4/4
L: 1/8
K: Emin
D4|Ez EE BEEE|B2 AF DEFD|Ez EE BEEE|B2 Ad BEED|
Ez EE BEEE|B2 AF DEFD|Ez EE BEEE|B2 AF BE E2||
e2 ge bege|d3f adfd|e2 ge bege|dBAd BEEz|
e2 ge bege|d3f afdf|eggg fde^c|dBAF GEFD||

